X: 48
M:9/8
L:1/8
K:G
uG|vG"4"AG Gge dBG|"4"(A2G) ABd (e2g)|vG"4"AG Gge dBG|ABc BAG (E2G)|\
ug|vgdg gag fed|"4"edB gab (a2f)|gab abg fed|ege dBG "4"(A2G)|\


